!!!OTL: Dui hua
!!!ARE: Asia, China,ÿHenan, Shangcheng
!! IV, 146
!!!SCT: C1657
!!!YEM: Copyright 1995, estate of Helmut Schaffrath.
**kern
*ICvox
*Ivox
*M2/4
*k[f#]
*G:
{8.gg
16gg
8gg
8ee
=1
4dd
4dd
=2
8.b
16b
8b
8a
=3
4g
4e}
=4
{8.gg
16aa
8gg
8ee
=5
4dd
4dd
=6
8gg
8b
8b
8a
=7
4g
4e}
=8
{4dd
8a
8b
=9
4dd
4dd}
=10
{8.dd
16dd
8a
8b
=11
4dd
4dd}
=12
{4a
4dd
=13
4dd
4dd}
=14
{8.gg
16gg
8gg
8gg
=15
4ee
8ee
8dd
=16
8ee
8dd
4gg
=17
4b
8b
8a
=18
8b
8dd
[4a
=19
4a]}
{[4dd
=20
4dd]
4gg
=21
8b
8dd
4b
=22
8b
8a
8b
8dd
=23
4b
8b
8a
=24
8b
8a
8g
8a
=25
2g}
=26
{8.gg
16gg
8gg
8ee
=27
4dd
4dd
=28
8.a
16b
8a
8b
=29
4dd
4dd}
=30
{8.gg
16aa
8gg
8ee
=31
4dd
4dd
=32
8.b
16b
8b
8a
=33
4g
4g}
=34
{8ee
8dd
[4ee
=35
4ee]
4ee
=36
8gg
8b
8b
8a
=37
8.g
16a
8g
8a
=38
8.g
16a
8g
8a
=39
8dd
8b
4dd}
=40
{4r
4gg
=41
8.b
16a
8g
8a
=42
2g}
==
!!!AGN: Xiaodiao. Chang huahui
!!!AMT: simple duple
!!!AIN: vox
!!!EED: Helmut Schaffrath
!!!EEV: 1.0
*-
!!!ONB: Tied note syntax fixed by Craig Sapp, 2004/05/03/
